X: 26449
T: Metal Man
R: waltz
M: 3/4
K: Dmajor
|:FG A2F2|D2F2A2|cd e2c2|d2B2G2|FG A2F2|D2F2D2|E2EDEF|G2F2E2|
FG A2F2|D2F2A2|cd e2f2|g2f2e2|d2A2F2|GA B2G2|FE D2C2|1 D3E D2|D2A2G2|2D3E D2|D2a2g2:|
|:f2d2f2|e2c2A2|B2BABc|d2A2F2|GA B2G2|FG A2F2|E2EDEF|G2F2E2|
f2d2f2|e2c2A2|B2BABc|d2A2F2|GA B2G2|FG A2D2|FED2C2|1 D2a2g2|2D2A2G2:|

